icons/filled/face-mask.svg

<svg xmlns="http://www.w3.org/2000/svg" width="24" height="24" viewBox="0 0 24 24" fill="currentColor"><path d="M12.825 4.196l5 1.43a3 3 0 0 1 2.175 2.884v.065c1.7 .33 3 1.72 3 3.425s-1.3 3.095 -3 3.425v.066a3 3 0 0 1 -2.175 2.885l-5 1.428a3 3 0 0 1 -1.65 0l-5 -1.429a3 3 0 0 1 -2.17 -2.702l-.005 -.247c-1.7 -.33 -3 -1.72 -3 -3.426c0 -1.705 1.3 -3.096 3 -3.426v-.064a3 3 0 0 1 2.175 -2.884l5 -1.428a3 3 0 0 1 1.65 0m2.175 8.802h-6a1 1 0 0 0 0 2h6a1 1 0 0 0 0 -2m-11 -2.349c-.6 .248 -1 .77 -1 1.349c0 .578 .4 1.101 1 1.349zm16.001 0v2.697c.599 -.248 .999 -.77 .999 -1.348s-.4 -1.1 -.999 -1.348m-5.001 -1.652h-6a1 1 0 1 0 0 2h6a1 1 0 0 0 0 -2"/></svg>

<svg xmlns="http://www.w3.org/2000/svg" width="24" height="24" fill="currentColor"><path d="m12.825 4.196 5 1.43A3 3 0 0 1 20 8.51v.065c1.7.33 3 1.72 3 3.425s-1.3 3.095-3 3.425v.066a3 3 0 0 1-2.175 2.885l-5 1.428a3 3 0 0 1-1.65 0l-5-1.429a3 3 0 0 1-2.17-2.702L4 15.426c-1.7-.33-3-1.72-3-3.426 0-1.705 1.3-3.096 3-3.426V8.51a3 3 0 0 1 2.175-2.884l5-1.428a3 3 0 0 1 1.65 0M15 13H9a1 1 0 0 0 0 2h6a1 1 0 0 0 0-2M4 10.651c-.6.248-1 .77-1 1.349 0 .578.4 1.101 1 1.349zm16.001 0v2.697C20.6 13.1 21 12.578 21 12s-.4-1.1-.999-1.348M15 9H9a1 1 0 1 0 0 2h6a1 1 0 0 0 0-2"/></svg>
